X:90
T:Drinking Parson,The. WM.089
M:6/8
L:1/8
Q:3/8=120
S:Wm.Mittell’s MS, New Romney,Kent,1799
R:.Jig
O:England
A:Kent
H:Reminds me of something.
Z:vmp.Chris Partington
W:Right hands across, back again.Cross over 2 cou. $ up 2 couple. place
W:hands round at the bottom
K:G
D|G>AB A>Bc|BdB cAA|G>AB A>Bc|BGG G2:|!
|:”*”D|GBdg3|ecc c3|Acea3|fdd d3|!
GBdg3|eccd2c|BGG cAA|BGGG2:|
W:Note D in bar 5 is editorial addition.

